X:110
T:Gooseberry Bush (reel), The 
B:CRE2.262 (Tor SpÃÂÃÂÃÂÃÂ­onÃÂÃÂÃÂÃÂ¡n)
F:file ID: cre.2/110gooseb
L:1/8
M:C
R:reel
Q:180
K:G
"D modal"
D2ED EFGG|AGAB c2AG|ABcA dcAF|G2AF GBAF|
DEFD EFGG|ABcA d2de|fddc d2ed|cAGE EDD2:|
|:Addd fddd|c2cd cAG2|ABAF GEE2|FGAB c2AG|
Add/c/d d2d2|c2cd cAG2|ABcA dcAG|1 ABcA d3z:|\
[2 ABcA d3||
|:c|Addd fddd|efge ecAd|cdef g2ef|gfge dcAd|
d2dc AFAG|FGAB c2AG|ABcA dcAG|ABcA d3:|

%%%

